ametion_vv-test/img/icons/chat-btn.svg

<svg width="16" height="16" fill="none" xmlns="http://www.w3.org/2000/svg"><path d="M14.4 3.2h-.8v6.4c0 .44-.36.8-.8.8H3.2v.8c0 .88.72 1.6 1.6 1.6h8L16 16V4.8c0-.88-.72-1.6-1.6-1.6zm-2.4 4V1.6c0-.88-.72-1.6-1.6-1.6H1.6C.72 0 0 .72 0 1.6V12l3.2-3.2h7.2c.88 0 1.6-.72 1.6-1.6z" fill="#fff"/></svg>

<svg width="16" height="16" viewBox="0 0 16 16" fill="none" xmlns="http://www.w3.org/2000/svg">
<path d="M14.4 3.2H13.6V9.6C13.6 10.04 13.24 10.4 12.8 10.4H3.2V11.2C3.2 12.08 3.92 12.8 4.8 12.8H12.8L16 16V4.8C16 3.92 15.28 3.2 14.4 3.2ZM12 7.2V1.6C12 0.72 11.28 0 10.4 0H1.6C0.72 0 0 0.72 0 1.6V12L3.2 8.8H10.4C11.28 8.8 12 8.08 12 7.2Z" fill="white"/>
</svg>
